lib/healthicons/icons/outline/typography/yen.svg

<svg fill="none" height="48" viewBox="0 0 48 48" width="48" xmlns="http://www.w3.org/2000/svg"><path clip-rule="evenodd" d="m31.6954 10.0795c1.0607-1.27281 2.9524-1.44478 4.2252-.38409 1.2729 1.06069 1.4448 2.95239.3841 4.22519l-.7682-.6402.7682.6402-5.9199 7.1039c1.4752.1889 2.6153 1.4491 2.6153 2.9756 0 1.656-1.3419 2.9987-2.9976 3 1.6557.0013 2.9976 1.3439 2.9976 3 0 1.6568-1.3432 3-3 3h-3v3c0 1.6568-1.3432 3-3 3-1.6569 0-3-1.3432-3-3v-3h-3c-1.6569 0-3-1.3432-3-3 0-1.6561 1.3418-2.9987 2.9976-3-1.6558-.0013-2.9976-1.344-2.9976-3 0-1.5265 1.1401-2.7867 2.6152-2.9756l-5.9199-7.1039c-1.0607-1.2728-.8887-3.1645.3841-4.22519l.6402.76819-.6402-.76819c1.2729-1.06069 3.1645-.88872 4.2252.38409l7.6954 9.2344zm2.9449 1.1524c-.4243-.3536-1.0549-.2963-1.4085.128l-8.4635 10.1563c-.19.228-.4714.3598-.7682.3598s-.5783-.1318-.7682-.3598l-8.4636-10.1563c-.3536-.4243-.9841-.4816-1.4084-.128-.4243.3535-.4816.9841-.128 1.4084l7.2663 8.7196c.2484.2981.302.713.1374 1.0643-.1646.3514-.5176.5759-.9056.5759h-1.7299c-.5523 0-1 .4477-1 1s.4477 1 1 1h4c.5523 0 1 .4477 1 1v2c0 .5523-.4477 1-1 1h-4c-.5523 0-1 .4477-1 1s.4477 1 1 1h4c.5523 0 1 .4477 1 1v4c0 .5523.4477 1 1 1s1-.4477 1-1v-4c0-.5523.4477-1 1-1h4c.5523 0 1-.4477 1-1s-.4477-1-1-1h-4c-.5523 0-1-.4477-1-1v-2c0-.5523.4477-1 1-1h4c.5523 0 1-.4477 1-1s-.4477-1-1-1h-1.7299c-.3881 0-.7411-.2245-.9056-.5759-.1646-.3513-.1111-.7662.1373-1.0643l7.2664-8.7196c.3536-.4243.2962-1.0549-.128-1.4084z" fill="#333" fill-rule="evenodd"/></svg>

<svg width="48" height="48" viewBox="0 0 48 48" fill="none" xmlns="http://www.w3.org/2000/svg">
<path fill-rule="evenodd" clip-rule="evenodd" d="M31.6954 10.0795C32.7561 8.80669 34.6478 8.63472 35.9206 9.69541C37.1935 10.7561 37.3654 12.6478 36.3047 13.9206L35.5365 13.2804L36.3047 13.9206L30.3848 21.0245C31.86 21.2134 33.0001 22.4736 33.0001 24.0001C33.0001 25.6561 31.6582 26.9988 30.0025 27.0001C31.6582 27.0014 33.0001 28.344 33.0001 30.0001C33.0001 31.6569 31.6569 33.0001 30.0001 33.0001H27.0001V36.0001C27.0001 37.6569 25.6569 39.0001 24.0001 39.0001C22.3432 39.0001 21.0001 37.6569 21.0001 36.0001V33.0001H18.0001C16.3432 33.0001 15.0001 31.6569 15.0001 30.0001C15.0001 28.344 16.3419 27.0014 17.9977 27.0001C16.3419 26.9988 15.0001 25.6561 15.0001 24.0001C15.0001 22.4736 16.1402 21.2134 17.6153 21.0245L11.6954 13.9206C10.6347 12.6478 10.8067 10.7561 12.0795 9.69541L12.7197 10.4636L12.0795 9.69541C13.3524 8.63472 15.244 8.80669 16.3047 10.0795L24.0001 19.3139L31.6954 10.0795ZM34.6403 11.2319C34.216 10.8783 33.5854 10.9356 33.2318 11.3599L24.7683 21.5162C24.5783 21.7442 24.2969 21.876 24.0001 21.876C23.7033 21.876 23.4218 21.7442 23.2319 21.5162L14.7683 11.3599C14.4147 10.9356 13.7842 10.8783 13.3599 11.2319C12.9356 11.5854 12.8783 12.216 13.2319 12.6403L20.4982 21.3599C20.7466 21.658 20.8002 22.0729 20.6356 22.4242C20.471 22.7756 20.118 23.0001 19.73 23.0001H18.0001C17.4478 23.0001 17.0001 23.4478 17.0001 24.0001C17.0001 24.5524 17.4478 25.0001 18.0001 25.0001H22.0001C22.5524 25.0001 23.0001 25.4478 23.0001 26.0001V28.0001C23.0001 28.5524 22.5524 29.0001 22.0001 29.0001H18.0001C17.4478 29.0001 17.0001 29.4478 17.0001 30.0001C17.0001 30.5524 17.4478 31.0001 18.0001 31.0001H22.0001C22.5524 31.0001 23.0001 31.4478 23.0001 32.0001V36.0001C23.0001 36.5524 23.4478 37.0001 24.0001 37.0001C24.5524 37.0001 25.0001 36.5524 25.0001 36.0001V32.0001C25.0001 31.4478 25.4478 31.0001 26.0001 31.0001H30.0001C30.5524 31.0001 31.0001 30.5524 31.0001 30.0001C31.0001 29.4478 30.5524 29.0001 30.0001 29.0001H26.0001C25.4478 29.0001 25.0001 28.5524 25.0001 28.0001V26.0001C25.0001 25.4478 25.4478 25.0001 26.0001 25.0001H30.0001C30.5524 25.0001 31.0001 24.5524 31.0001 24.0001C31.0001 23.4478 30.5524 23.0001 30.0001 23.0001H28.2702C27.8821 23.0001 27.5291 22.7756 27.3646 22.4242C27.2 22.0729 27.2535 21.658 27.5019 21.3599L34.7683 12.6403C35.1219 12.216 35.0645 11.5854 34.6403 11.2319Z" fill="#333333"/>
</svg>
